build/images/g7.svg

<svg width="138" height="138" viewBox="0 0 138 138" fill="none" xmlns="http://www.w3.org/2000/svg">
<circle cx="69" cy="69" r="69" fill="#76BD5E"/>
<path d="M69 74.4166C74.6609 74.4166 79.25 69.8275 79.25 64.1666C79.25 58.5057 74.6609 53.9166 69 53.9166C63.3391 53.9166 58.75 58.5057 58.75 64.1666C58.75 69.8275 63.3391 74.4166 69 74.4166Z" fill="white"/>
<path d="M89.9272 36.8334H48.073C46.3745 36.8352 44.7461 37.5107 43.5451 38.7117C42.3441 39.9127 41.6686 41.5411 41.6667 43.2396V85.0938C41.6667 88.6266 44.5402 91.5 48.073 91.5H65.5834V98.3334H51.9167V105.167H86.0834V98.3334H72.4167V91.5H89.9272C91.6256 91.4982 93.2541 90.8227 94.4551 89.6217C95.6561 88.4207 96.3316 86.7923 96.3334 85.0938V43.2396C96.3316 41.5411 95.6561 39.9127 94.4551 38.7117C93.2541 37.5107 91.6256 36.8352 89.9272 36.8334ZM69.0001 81.25C59.5803 81.25 51.9167 73.5865 51.9167 64.1667C51.9167 54.747 59.5803 47.0834 69.0001 47.0834C78.4198 47.0834 86.0834 54.747 86.0834 64.1667C86.0834 73.5865 78.4198 81.25 69.0001 81.25Z" fill="white"/>
</svg>

<svg width="138" height="138" fill="none" xmlns="http://www.w3.org/2000/svg"><circle cx="69" cy="69" r="69" fill="#76BD5E"/><path d="M69 74.417c5.66 0 10.25-4.59 10.25-10.25 0-5.661-4.59-10.25-10.25-10.25s-10.25 4.589-10.25 10.25c0 5.66 4.59 10.25 10.25 10.25z" fill="#fff"/><path d="M89.927 36.833H48.073a6.413 6.413 0 00-6.406 6.407v41.854a6.413 6.413 0 006.406 6.406h17.51v6.833H51.917v6.834h34.166v-6.834H72.417V91.5h17.51a6.413 6.413 0 006.406-6.406V43.24a6.413 6.413 0 00-6.406-6.407zM69 81.25c-9.42 0-17.083-7.663-17.083-17.083 0-9.42 7.663-17.084 17.083-17.084 9.42 0 17.083 7.664 17.083 17.084S78.42 81.25 69 81.25z" fill="#fff"/></svg>
